X: 2
T: The Lilac
R: reel
M: 4/4
L: 1/8
K: Ador
|:e3d cA3|(3Bcd ed cA3|e3d cA3|BAGA Bcdg|
e3d cA3|(3Bcd ed cA3|a3g e3d|cAGB A2 (3Bcd:|
|:eaag e3d|(3Bcd ed cA3|e3d c3d|eaab aged|
eaag e3d|(3Bcd ed cA3|e3 d cA A2|BAGB A2 (3Bcd:||


Tune 758	Setting 27940

